X:1
T:Title
%%score 1 2 { ( 3 5 ) | ( 4 6 ) } 7
L:1/8
Q:1/4=116
M:6/4
K:Db
V:1 treble nm="Trumpet, Trumpet"
V:2 treble nm="Trombone, Trombone"
V:3 treble nm="Grand Piano, Piano RH"
V:5 treble 
V:4 bass 
V:6 bass 
V:7 bass nm="Grand Piano, Piano LH"
V:1
 z12 | z12 | z12 | z12 | F6 A6 | G2 A2 B2 c2 B2 A2 | d6 B6 | A12 | A6 E6 | D2 E2 F2 A2 B2 d2 | %10
w: ||||Crown Him,|crown Him with glo\- ry the|King of|kings;|Praise and|hom\- age each heart as its|
 c6 B6 | e12 | F6 A6 | G2 A2 B2 c2 B2 A2 | d6 e4 _f2 | f12 | e6 d4 B2 | A2 F2 d2 B2 A2 F2 | D6 E6 | %19
w: tri\- bute|brings;|Sing, O|earth, and u\- nite in the|might\- y re\-|frain:|Christ our Re\-|deem\- er and King, will for\-|ev\- er|
 D12 | d6 c6 | B6 A6 | B2 A2 F2 E4 D2 | A4 =G2 _G6 | E6 F6 | G6 A6 | c2 d2 e2 c2 B2 A2 | f12 | %28
w: reign!|Sing ho\-|san\- nas,|loud let the joy\- ful|an\- thems ring,|Laud and|wor\- ship|Him whom the an\- gels a\-|dore!|
 d6 c6 | B6 A6 | F2 _F2 =F2 A2 G2 F2 | B12 | B2 =A2 B2 d2 c2 d2 | f6 A6 | B2 c2 d2 f4 e2 | d12 | %36
w: Crown Him,|crown Him,|Sav\- ior, Re\- deem\- er and|King,|Glo\- ry to God in the|high\- est|Glo\- ry for\- ev\- er\-|more!|
 z12 | z12 | z12 | z12 | z12 | z12 | z12 | z12 | z12 | z12 | z12 | z12 | z12 | z12 | z12 | z12 | %52
w: ||||||||||||||||
 z12 | z12 | z12 | z12 | z12 | z12 | z12 | z12 | z12 | z12 | z12 | z12 | z12 | z12 | z12 | z12 | %68
w: ||||||||||||||||
 F6 A6 | G2 A2 B2 c2 B2 A2 | d6 B6 | A12 | A6 E6 | D2 E2 F2 A2 B2 d2 | c6 B6 | e12 | F6 A6 | %77
w: Praise Him,|praise Him, the King on the|great white|throne;|Love Him,|serve Him, who rul\- eth by|love a\-|lone;|Up to|
 G2 A2 B2 c2 B2 A2 | d6 e4 _f2 | f12 | e6 d4 B2 | A2 F2 d2 B2 A2 F2 | D6 E6 | D12 | d6 c6 | B6 A6 | %86
w: heav\- en the shout of the|glor\- ri\- fied|rings:|Laud and a\-|dore Him, and crown Him the|King of|kings!|Sing ho\-|san\- nas,|
 B2 A2 F2 E4 D2 | A4 =G2 _G6 | E6 F6 | G6 A6 | c2 d2 e2 c2 B2 A2 | f12 | d6 c6 | B6 A6 | %94
w: loud let the joy\- ful|an\- thems ring,|Laud and|wor\- ship|Him whom the an\- gels a\-|dore!|Crown Him,|crown Him,|
 F2 _F2 =F2 A2 G2 F2 | B12 | B2 =A2 B2 d2 c2 d2 | f6 A6 |[Q:1/4=110] B2 c2 d2 f4 e2 | %99
w: Sav\- ior, Re\- deem\- er and|King,|Glo\- ry to God in the|high\- est|Glo\- ry for\- ev\- er\-|
[Q:1/4=98] d12[Q:1/4=58] |] %100
w: more!|
V:2
 z12 | z12 | z12 | z12 | z12 | z12 | z12 | z12 | z12 | z12 | z12 | z12 | z12 | z12 | z12 | z12 | %16
w: ||||||||||||||||
 z12 | z12 | z12 | z12 | z12 | z12 | z12 | z12 | z12 | z12 | z12 | z12 | z12 | z12 | z12 | z12 | %32
w: ||||||||||||||||
 z12 | z12 | z12 | z12 | F6 A6 | G2 A2 B2 c2 B2 A2 | d6 B6 | A12 | A6 E6 | D2 E2 F2 A2 B2 d2 | %42
w: ||||He who|reigns o'er the king\- doms of|earth to\-|day,|Sends His|bless\- ings to those in the|
 c6 B6 | e12 | F6 A6 | G2 A2 B2 c2 B2 A2 | d6 e4 _f2 | f12 | e6 d4 B2 | A2 F2 d2 B2 A2 F2 | D6 E6 | %51
w: heav'n\- ward|way;|Sing, we|prais\- es with hearts that with|love o\- ver\-|flow:|Glo\- ry to|Je\- sus who con\- quers our|ev\- 'ry|
 D12 | d6 c6 | B6 A6 | B2 A2 F2 E4 D2 | A4 =G2 _G6 | E6 F6 | G6 A6 | c2 d2 e2 c2 B2 A2 | f12 | %60
w: foe!|Sing ho\-|san\- nas,|loud let the joy\- ful|an\- thems ring,|Laud and|wor\- ship|Him whom the an\- gels a\-|dore!|
 d6 c6 | B6 A6 | F2 _F2 =F2 A2 G2 F2 | B12 | B2 =A2 B2 d2 c2 d2 | f6 A6 | B2 c2 d2 f4 e2 | d12 | %68
w: Crown Him,|crown Him,|Sav\- ior, Re\- deem\- er and|King,|Glo\- ry to God in the|high\- est|Glo\- ry for\- ev\- er\-|more!|
 D6 F6 | E6 A2 G2 E2 | F6 G6 | F12 | E6 A,6 | A,2 C2 D2 F2 F2 G2 | A6 E6 | c12 | D6 F6 | %77
w: |||||||||
 E6 A2 G2 E2 | F6 G4 _F2 | =A12 | G6 B4 G2 | F2 D2 B2 G2 F2 D2 | B,6 A,6 | A,12 | z12 | z12 | z12 | %87
w: ||||||||||
 z12 | z12 | z12 | z12 | z12 | z12 | z12 | z12 | z12 | z12 | z12 | z12 | z12 |] %100
w: |||||||||||||
V:3
 A2 A2 A2 A2 A2 A2 | ABcdef g2 A2 A2 | z12 | A2 A2 A2 A2 A2 A2 | z2 D2 D2 z2 D2 D2 | %5
 C2 G2 G2 G2 G2 E2 | z2 A2 A2 z2 G2 G2 | z2 F2 F2 D2 D2 F2 | z2 G2 G2 z2 C2 C2 | %9
 A,2 A,2 D2 F2 F2 G2 | z2 A2 A2 z2 E2 E2 | c12 | A,6 z2 _C2 C2 | C2 G2 G2 G2 G2 E2 | %14
 z2 A2 A2 z2 d2 d2 | c6- c2 f2 f2 | z2 B2 B2 z2 F2 G2 | D12 | z2[K:bass] B,2 B,2 z2 C2 C2 | %19
 z2 A,2 A,2 A,6 | z2 A2 A2 z2 A2 A2 | z2 G2 G2 z2 D2 D2 | D2 D2 D2 D2 D2 =G,2 | G4 E2 E6 | %24
 z2 C2 C2 z2 D2 D2 | z2 C2 C2 z2 E2 E2 | G2 G2 G2 G2 G2 D2 | d12 | z2 A2 A2 z2 =A2 A2 | %29
 z2 G2 G2 z2 F2 F2 | =D2[K:bass] B,2 D2 B,2 B,2 B,2 | G2 G2 G2 A2 A2 A2 | G2 G2 G2 B2 B2 B2 | %33
 a6 f6 | =G2 G2 G2 c4 A2 | A2 A2 A2 A6 | A,6 z2 D2 D2 | C2 G2 G2 G2 G2 E2 | z2 A2 A2 z2 G2 G2 | %39
 z2 F2 F2 D2 D2 F2 | z2 G2 G2 z2 C2 C2 | A,2 A,2 D2 F2 F2 G2 | z2 A2 A2 z2 E2 E2 | c12 | %44
 A,6 z2 _C2 C2 | C2 G2 G2 G2 G2 E2 | z2 A2 A2 z2 d2 d2 | c6- c2 f2 f2 | z2 B2 B2 z2 F2 G2 | D12 | %50
 z2[K:bass] B,2 B,2 z2 C2 C2 | z2 A,2 A,2 A,6 | z2 A2 A2 z2 A2 A2 | z2 G2 G2 z2 D2 D2 | %54
 D2 D2 D2 D2 D2 =G,2 | G4 E2 E6 | z2 C2 C2 z2 D2 D2 | z2 C2 C2 z2 E2 E2 | G2 G2 G2 G2 G2 D2 | d12 | %60
 z2 A2 A2 z2 =A2 A2 | z2 G2 G2 z2 F2 F2 | =D2[K:bass] B,2 D2 B,2 B,2 B,2 | G2 G2 G2 A2 A2 A2 | %64
 G2 G2 G2 B2 B2 B2 | a6 f6 | =G2 G2 G2 c4 A2 | A2 A2 A2 A6 | A,6 z2 D2 D2 | C2 G2 G2 G2 G2 E2 | %70
 z2 A2 A2 z2 G2 G2 | z2 F2 F2 D2 D2 F2 | z2 G2 G2 z2 C2 C2 | A,2 A,2 D2 F2 F2 G2 | %74
 z2 A2 A2 z2 E2 E2 | c12 | A,6 z2 _C2 C2 | C2 G2 G2 G2 G2 E2 | z2 A2 A2 z2 d2 d2 | c6- c2 f2 f2 | %80
 z2 B2 B2 z2 F2 G2 | D12 | z2[K:bass] B,2 B,2 z2 C2 C2 | z2 A,2 A,2 A,6 | z2 A2 A2 z2 A2 A2 | %85
 z2 G2 G2 z2 D2 D2 | D2 D2 D2 D2 D2 =G,2 | G4 E2 E6 | z2 C2 C2 z2 D2 D2 | z2 C2 C2 z2 E2 E2 | %90
 G2 G2 G2 G2 G2 D2 | d12 | z2 A2 A2 z2 =A2 A2 | z2 G2 G2 z2 F2 F2 | %94
 =D2[K:bass] B,2 D2 B,2 B,2 B,2 | G2 G2 G2 A2 A2 A2 | G2 G2 G2 B2 B2 B2 | a6 f6 | =G2 G2 G2 c4 A2 | %99
 A2 A2 A2 A6 |] %100
V:4
 A,2 A,2 A,2 A,2 A,2 A,2 | z6[K:treble] .[Ace]6 | z12 | [A,CEG]2[K:bass] A,2 A,2 A,2 A,2 A,2 | %4
 z12 | A,2 C2 C2 C2 C2 C2 | z6 z2 D2 D2 | z2 D2 D2 A,2[K:bass] A,2 [A,_C]2 | z2 C2 C2 z2 A,2 A,2 | %9
 z4 A,2[K:treble] D2 D2 D2 | z2 E2 E2 z2 D2 D2 | [EG]12 | z2 D2 D2 A,6 | A,2 C2 C2 C2 C2 C2 | %14
 z6 z2 [GB]2 [_FB]2 | [F=A]6- [FA]2 F2 F2 | z2 G2 G2 z4 D2 | z12 | z2[K:bass] =G,2 G,2 z2 A,2 A,2 | %19
 z2 F,2 F,2 F,6 | z2[K:treble] F2 F2 z2 F2 F2 | z2 D2 D2 z6 | B,2 A,2 A,2 [=G,B,]2 .[G,B,]4 | %23
 .[A,C]6 z6 | z2 A,2 A,2 z2 A,2 A,2 | z2 A,2 A,2 z2 A,2 A,2 | C2 D2 E2 E2 .D4 | [FA]12 | %28
 z2 F2 F2 z2 E2 E2 | z2 D2 D2 z2 D2 D2 | [A,B,]2 A,2 [A,B,]2 A,2 A,2 A,2 | %31
 [B,E]2 [B,E]2 [B,E]2 [B,=DF]2 [B,DF]2 [B,DF]2 | [B,E]2 [=A,E]2 [B,E]2 _F2 F2 F2 | %33
 z2 A2 A2 z2 D2 D2 | [DE]2 D2 D2 [GA]4 G2 | [DF]2 [DF]2 [DF]2 [DF]6 | z2 D2 D2 A,6 | %37
 A,2 C2 C2 C2 C2 C2 | z6 z2 D2 D2 | z2 D2 D2 A,2[K:bass] A,2 [A,_C]2 | z2 C2 C2 z2 A,2 A,2 | %41
 z4 A,2[K:treble] D2 D2 D2 | z2 E2 E2 z2 D2 D2 | [EG]12 | z2 D2 D2 A,6 | A,2 C2 C2 C2 C2 C2 | %46
 z6 z2 [GB]2 [_FB]2 | [F=A]6- [FA]2 F2 F2 | z2 G2 G2 z4 D2 | z12 | z2[K:bass] =G,2 G,2 z2 A,2 A,2 | %51
 z2 F,2 F,2 F,6 | z2[K:treble] F2 F2 z2 F2 F2 | z2 D2 D2 z6 | B,2 A,2 A,2 [=G,B,]2 .[G,B,]4 | %55
 .[A,C]6 z6 | z2 A,2 A,2 z2 A,2 A,2 | z2 A,2 A,2 z2 A,2 A,2 | C2 D2 E2 E2 .D4 | [FA]12 | %60
 z2 F2 F2 z2 E2 E2 | z2 D2 D2 z2 D2 D2 | [A,B,]2 A,2 [A,B,]2 A,2 A,2 A,2 | %63
 [B,E]2 [B,E]2 [B,E]2 [B,=DF]2 [B,DF]2 [B,DF]2 | [B,E]2 [=A,E]2 [B,E]2 _F2 F2 F2 | %65
 z2 A2 A2 z2 D2 D2 | [DE]2 D2 D2 [GA]4 G2 | [DF]2 [DF]2 [DF]2 [DF]6 | z2 D2 D2 A,6 | %69
 A,2 C2 C2 C2 C2 C2 | z6 z2 D2 D2 | z2 D2 D2 A,2[K:bass] A,2 [A,_C]2 | z2 C2 C2 z2 A,2 A,2 | %73
 z4 A,2[K:treble] D2 D2 D2 | z2 E2 E2 z2 D2 D2 | [EG]12 | z2 D2 D2 A,6 | A,2 C2 C2 C2 C2 C2 | %78
 z6 z2 [GB]2 [_FB]2 | [F=A]6- [FA]2 F2 F2 | z2 G2 G2 z4 D2 | z12 | z2[K:bass] =G,2 G,2 z2 A,2 A,2 | %83
 z2 F,2 F,2 F,6 | z2[K:treble] F2 F2 z2 F2 F2 | z2 D2 D2 z6 | B,2 A,2 A,2 [=G,B,]2 .[G,B,]4 | %87
 .[A,C]6 z6 | z2 A,2 A,2 z2 A,2 A,2 | z2 A,2 A,2 z2 A,2 A,2 | C2 D2 E2 E2 .D4 | [FA]12 | %92
 z2 F2 F2 z2 E2 E2 | z2 D2 D2 z2 D2 D2 | [A,B,]2 A,2 [A,B,]2 A,2 A,2 A,2 | %95
 [B,E]2 [B,E]2 [B,E]2 [B,=DF]2 [B,DF]2 [B,DF]2 | [B,E]2 [=A,E]2 [B,E]2 _F2 F2 F2 | %97
 z2 A2 A2 z2 D2 D2 | [DE]2 D2 D2 [GA]4 G2 | [DF]2 [DF]2 [DF]2 [DF]6 |] %100
V:5
 x12 | x12 | x12 | x12 | A,6 A,6 | x12 | D6 B,6 | A,6 z6 | A,6 z6 | x12 | C6 B,6 | x12 | x12 | %13
 x12 | D6 .E6 | x12 | E6 .D6 | x12 | x2[K:bass] x10 | x12 | D6 C6 | B,6 A,6 | x12 | x12 | x12 | %25
 x12 | x12 | x12 | D6 C6 | B,6 A,6 | x2[K:bass] x10 | x12 | x12 | z2 d2 d2 z2 F2 F2 | x12 | x12 | %36
 x12 | x12 | D6 B,6 | A,6 z6 | A,6 z6 | x12 | C6 B,6 | x12 | x12 | x12 | D6 .E6 | x12 | E6 .D6 | %49
 x12 | x2[K:bass] x10 | x12 | D6 C6 | B,6 A,6 | x12 | x12 | x12 | x12 | x12 | x12 | D6 C6 | %61
 B,6 A,6 | x2[K:bass] x10 | x12 | x12 | z2 d2 d2 z2 F2 F2 | x12 | x12 | x12 | x12 | D6 B,6 | %71
 A,6 z6 | A,6 z6 | x12 | C6 B,6 | x12 | x12 | x12 | D6 .E6 | x12 | E6 .D6 | x12 | x2[K:bass] x10 | %83
 x12 | D6 C6 | B,6 A,6 | x12 | x12 | x12 | x12 | x12 | x12 | D6 C6 | B,6 A,6 | x2[K:bass] x10 | %95
 x12 | x12 | z2 d2 d2 z2 F2 F2 | x12 | x12 |] %100
V:6
 x12 | x6[K:treble] x6 | x12 | x2[K:bass] x10 | x12 | x12 | x12 | x8[K:bass] x4 | x12 | %9
 x6[K:treble] x6 | x12 | x12 | x12 | x12 | x12 | x12 | x12 | x12 | x2[K:bass] x10 | x12 | %20
 x2[K:treble] x10 | x12 | x12 | x12 | x12 | x12 | x12 | x12 | x12 | x12 | x12 | x12 | x12 | %33
 F6 A,6 | x12 | x12 | x12 | x12 | x12 | x8[K:bass] x4 | x12 | x6[K:treble] x6 | x12 | x12 | x12 | %45
 x12 | x12 | x12 | x12 | x12 | x2[K:bass] x10 | x12 | x2[K:treble] x10 | x12 | x12 | x12 | x12 | %57
 x12 | x12 | x12 | x12 | x12 | x12 | x12 | x12 | F6 A,6 | x12 | x12 | x12 | x12 | x12 | %71
 x8[K:bass] x4 | x12 | x6[K:treble] x6 | x12 | x12 | x12 | x12 | x12 | x12 | x12 | x12 | %82
 x2[K:bass] x10 | x12 | x2[K:treble] x10 | x12 | x12 | x12 | x12 | x12 | x12 | x12 | x12 | x12 | %94
 x12 | x12 | x12 | F6 A,6 | x12 | x12 |] %100
V:7
 z12 | .[A,CEG]12 | [C,C]2 [B,,B,]2 [A,,A,]2 [G,,G,]2 [E,,E,]2 [C,,C,]2 | .[A,,,A,,]12 | %4
 [D,,D,]6 [F,,F,]6 | [E,,E,]6 A,,4 [G,,G,]2 | [F,,F,]6 [G,,G,]6 | F,2 A,,2 D,2 F,2 D,2 =D,2 | %8
 [E,,E,]6 [G,,G,]6 | [F,,F,]6 [D,,D,]4 [B,,,B,,]2 | [E,,E,]6 [E,,E,]2 [F,,F,]2 [=G,,=G,]2 | %11
 [A,,A,]2 [B,,B,]2 [A,,A,]2 [G,,G,]2 [F,,F,]2 [E,,E,]2 | [D,,D,]6 [=D,,=D,]6 | %13
 [E,,E,]6 A,,4 [G,,G,]2 | [F,,F,]6 [G,,G,]6 | [F,,F,]2 [C,,C,]2 [=A,,,=A,,]2 [F,,,F,,]6 | %16
 [G,,G,]6 [B,,B,]4 [G,,G,]2 | [F,,F,]2 [D,,D,]2 [B,,B,]2 [G,,G,]2 [F,,F,]2 [D,,D,]2 | %18
 [B,,,B,,]6 [A,,,A,,]6 | D,2 A,,2 F,,2 D,,6 | [D,,D,]6 [F,,F,]6 | [G,,G,]6 [F,,F,]6 | %22
 [G,,G,]2 [F,,F,]2 [D,,D,]2 [B,,,B,,]4 [=A,,,=A,,]2 | %23
 [A,,,A,,]2 [A,,,A,,]2 [B,,B,]2 [C,C]2 [B,,B,]2 [A,,A,]2 | [G,,G,]6 [F,,F,]6 | [E,,E,]6 [C,,C,]6 | %26
 [A,,A,]2 [B,,B,]2 [C,C]2 [A,,A,]2 [G,,G,]2 [F,,F,]2 | %27
 [D,,D,]2 [F,,F,]2 [D,D]2 [B,,B,]2 [A,,A,]2 [F,,F,]2 | [D,,D,]6 [F,,F,]6 | [G,,G,]6 [D,,D,]6 | %30
 [B,,,B,,]6 [=D,,=D,]6 | [E,,E,]6 [F,,F,]6 | [G,,G,]6 [=G,,=G,]6 | [A,,A,]6 [F,,F,]6 | %34
 [E,,E,]6 [A,,,A,,]2 [B,,,B,,]2 [C,,C,]2 | [D,,D,]2 [A,,,A,,]2 [F,,,F,,]2 [D,,,D,,]6 | %36
 [D,,D,]6 [F,,F,]6 | [E,,E,]6 A,,4 [G,,G,]2 | [F,,F,]6 [G,,G,]6 | F,2 A,,2 D,2 F,2 D,2 =D,2 | %40
 [E,,E,]6 [G,,G,]6 | [F,,F,]6 [D,,D,]4 [B,,,B,,]2 | [E,,E,]6 [E,,E,]2 [F,,F,]2 [=G,,=G,]2 | %43
 [A,,A,]2 [B,,B,]2 [A,,A,]2 [G,,G,]2 [F,,F,]2 [E,,E,]2 | [D,,D,]6 [=D,,=D,]6 | %45
 [E,,E,]6 A,,4 [G,,G,]2 | [F,,F,]6 [G,,G,]6 | [F,,F,]2 [C,,C,]2 [=A,,,=A,,]2 [F,,,F,,]6 | %48
 [G,,G,]6 [B,,B,]4 [G,,G,]2 | [F,,F,]2 [D,,D,]2 [B,,B,]2 [G,,G,]2 [F,,F,]2 [D,,D,]2 | %50
 [B,,,B,,]6 [A,,,A,,]6 | D,2 A,,2 F,,2 D,,6 | [D,,D,]6 [F,,F,]6 | [G,,G,]6 [F,,F,]6 | %54
 [G,,G,]2 [F,,F,]2 [D,,D,]2 [B,,,B,,]4 [=A,,,=A,,]2 | %55
 [A,,,A,,]2 [A,,,A,,]2 [B,,B,]2 [C,C]2 [B,,B,]2 [A,,A,]2 | [G,,G,]6 [F,,F,]6 | [E,,E,]6 [C,,C,]6 | %58
 [A,,A,]2 [B,,B,]2 [C,C]2 [A,,A,]2 [G,,G,]2 [F,,F,]2 | %59
 [D,,D,]2 [F,,F,]2 [D,D]2 [B,,B,]2 [A,,A,]2 [F,,F,]2 | [D,,D,]6 [F,,F,]6 | [G,,G,]6 [D,,D,]6 | %62
 [B,,,B,,]6 [=D,,=D,]6 | [E,,E,]6 [F,,F,]6 | [G,,G,]6 [=G,,=G,]6 | [A,,A,]6 [F,,F,]6 | %66
 [E,,E,]6 [A,,,A,,]2 [B,,,B,,]2 [C,,C,]2 | [D,,D,]2 [A,,,A,,]2 [F,,,F,,]2 [D,,,D,,]6 | %68
 [D,,D,]6 [F,,F,]6 | [E,,E,]6 A,,4 [G,,G,]2 | [F,,F,]6 [G,,G,]6 | F,2 A,,2 D,2 F,2 D,2 =D,2 | %72
 [E,,E,]6 [G,,G,]6 | [F,,F,]6 [D,,D,]4 [B,,,B,,]2 | [E,,E,]6 [E,,E,]2 [F,,F,]2 [=G,,=G,]2 | %75
 [A,,A,]2 [B,,B,]2 [A,,A,]2 [G,,G,]2 [F,,F,]2 [E,,E,]2 | [D,,D,]6 [=D,,=D,]6 | %77
 [E,,E,]6 A,,4 [G,,G,]2 | [F,,F,]6 [G,,G,]6 | [F,,F,]2 [C,,C,]2 [=A,,,=A,,]2 [F,,,F,,]6 | %80
 [G,,G,]6 [B,,B,]4 [G,,G,]2 | [F,,F,]2 [D,,D,]2 [B,,B,]2 [G,,G,]2 [F,,F,]2 [D,,D,]2 | %82
 [B,,,B,,]6 [A,,,A,,]6 | D,2 A,,2 F,,2 D,,6 | [D,,D,]6 [F,,F,]6 | [G,,G,]6 [F,,F,]6 | %86
 [G,,G,]2 [F,,F,]2 [D,,D,]2 [B,,,B,,]4 [=A,,,=A,,]2 | %87
 [A,,,A,,]2 [A,,,A,,]2 [B,,B,]2 [C,C]2 [B,,B,]2 [A,,A,]2 | [G,,G,]6 [F,,F,]6 | [E,,E,]6 [C,,C,]6 | %90
 [A,,A,]2 [B,,B,]2 [C,C]2 [A,,A,]2 [G,,G,]2 [F,,F,]2 | %91
 [D,,D,]2 [F,,F,]2 [D,D]2 [B,,B,]2 [A,,A,]2 [F,,F,]2 | [D,,D,]6 [F,,F,]6 | [G,,G,]6 [D,,D,]6 | %94
 [B,,,B,,]6 [=D,,=D,]6 | [E,,E,]6 [F,,F,]6 | [G,,G,]6 [=G,,=G,]6 | [A,,A,]6 [F,,F,]6 | %98
 [E,,E,]6 [A,,,A,,]2 [B,,,B,,]2 [C,,C,]2 | [D,,D,]2 [A,,,A,,]2 [F,,,F,,]2 [D,,,D,,]6 |] %100

